public/img/check.svg

<svg fill="none" height="16" viewBox="0 0 16 16" width="16" xmlns="http://www.w3.org/2000/svg"><g fill="#6c5dd1"><path d="m11.9414 0h-8.40538c-1.94974 0-3.53602 1.58625-3.53602 3.53602v8.40538c0 1.9499 1.58628 3.5362 3.53602 3.5362h8.40538c1.9498 0 3.536-1.5863 3.536-3.5362v-8.40538c0-1.94977-1.5862-3.53602-3.536-3.53602zm1.5692 11.9414c0 .8653-.7039 1.5694-1.5692 1.5694h-8.40538c-.86527 0-1.56921-.7041-1.56921-1.5694v-8.40538c0-.86527.70394-1.56921 1.56921-1.56921h8.40538c.8653 0 1.5692.70394 1.5692 1.56921z"/><path d="m10.6946 4.50274c-1.30471 1.51953-2.60944 3.03903-3.91415 4.55856-.66765-.70694-1.33526-1.41391-2.00292-2.12085-.81642-.86451-2.11862.44105-1.30382 1.30382.89529.948 1.79056 1.89603 2.68585 2.84393.32332.3424.98537.3709 1.30379 0 1.51169-1.76052 3.02335-3.52108 4.53505-5.28162.7693-.89595-.5292-2.20597-1.3038-1.30384z"/></g></svg>

<svg width="16" height="16" viewBox="0 0 16 16" fill="none" xmlns="http://www.w3.org/2000/svg">
<path d="M11.9414 0H3.53602C1.58628 0 0 1.58625 0 3.53602V11.9414C0 13.8913 1.58628 15.4776 3.53602 15.4776H11.9414C13.8912 15.4776 15.4774 13.8913 15.4774 11.9414V3.53602C15.4774 1.58625 13.8912 0 11.9414 0ZM13.5106 11.9414C13.5106 12.8067 12.8067 13.5108 11.9414 13.5108H3.53602C2.67075 13.5108 1.96681 12.8067 1.96681 11.9414V3.53602C1.96681 2.67075 2.67075 1.96681 3.53602 1.96681H11.9414C12.8067 1.96681 13.5106 2.67075 13.5106 3.53602V11.9414V11.9414Z" fill="#6C5DD1"/>
<path d="M10.6946 4.50274C9.38989 6.02227 8.08516 7.54177 6.78045 9.0613C6.1128 8.35436 5.44519 7.64739 4.77753 6.94045C3.96111 6.07594 2.65891 7.3815 3.47371 8.24427C4.369 9.19227 5.26427 10.1403 6.15956 11.0882C6.48288 11.4306 7.14493 11.4591 7.46335 11.0882C8.97504 9.32768 10.4867 7.56712 11.9984 5.80658C12.7677 4.91063 11.4692 3.60061 10.6946 4.50274Z" fill="#6C5DD1"/>
</svg>
